tipitek/img/Logo.svg

<svg width="133" height="43" viewBox="0 0 133 43" fill="none" xmlns="http://www.w3.org/2000/svg">
<path d="M6.39551 27.5184L21.6399 12.3157C20.6012 11.3306 19.7586 10.0937 18.2368 9.7761L20.2649 7.802C20.326 7.85881 20.4986 8.01503 20.6635 8.179C22.467 9.97106 24.2562 11.7773 26.0791 13.55C26.8582 14.3092 27.7073 14.9973 28.5383 15.7294C27.7852 16.8359 26.1583 16.9895 25.1053 15.9334C24.5146 15.3395 23.9653 14.7055 23.4252 14.1258L9.79989 27.6695L21.279 39.0841L39.3721 21.09L36.3338 18.1347L37.9919 16.5324L42.6025 21.1494L21.2971 42.3351L6.39551 27.5184Z" fill="#30CBFF"/>
<path d="M20.9353 29.9988C22.0155 31.0497 22.8906 32.2569 24.4656 32.6068L22.3765 34.5615C19.5875 32.0349 17.1037 29.0369 14.0668 26.6187C15.0172 25.4567 16.5337 25.3857 17.6244 26.5283C18.158 27.0873 18.6722 27.6671 19.1383 28.1757L32.7818 14.6075L21.3261 3.21356L3.24728 21.1909L6.28551 24.1604L4.53658 25.7097L0 21.2025C7.07364 14.1608 14.2213 7.05588 21.3183 0L36.2095 14.8102L20.9353 29.9988Z" fill="#30CBFF"/>
<path d="M118.283 15.2607H121.027V20.137C121.267 19.9696 121.416 19.8725 121.558 19.7672C123.436 18.3635 125.306 16.9484 127.201 15.5664C127.492 15.3706 127.833 15.2607 128.184 15.2494C129.299 15.2076 130.416 15.2421 131.526 15.3526L123.788 20.8269L132.631 27.081C131.416 27.081 130.354 27.0335 129.298 27.0965C128.472 27.1461 127.828 26.9054 127.175 26.4086C125.282 24.9626 123.343 23.5878 121.421 22.1852C121.34 22.1253 121.254 22.0726 121.075 21.9528V27.05H118.283V15.2607Z" fill="#3A3A3A"/>
<path d="M104.645 27.0532V17.4205H115.069V19.1072H107.086V21.1823H111.704V22.869H107.088V25.2167H115.19V27.0491L104.645 27.0532Z" fill="#3A3A3A"/>
<path d="M74.0836 23.3172V27.0417H71.7559V17.407C71.9044 17.3998 72.0675 17.3853 72.2347 17.3853C75.0517 17.3853 77.8683 17.3853 80.6846 17.3853C80.8917 17.3825 81.0985 17.3984 81.3027 17.4328C82.3081 17.6177 82.7496 18.0939 82.7891 19.103C82.8202 19.9293 82.8233 20.7556 82.7891 21.5768C82.7444 22.6355 82.1908 23.2221 81.0825 23.2593C79.219 23.3213 77.3524 23.3017 75.4869 23.3151C75.0413 23.3192 74.5967 23.3172 74.0836 23.3172ZM74.1023 21.6139H75.5565C76.9068 21.6139 78.2572 21.6232 79.6002 21.6088C80.3408 21.6015 80.5444 21.3888 80.5517 20.6978C80.5517 20.422 80.5455 20.1473 80.5517 19.8715C80.5641 19.4149 80.3439 19.1629 79.8911 19.1082C79.6863 19.0781 79.4799 19.0598 79.273 19.0534C77.6803 19.0493 76.0904 19.0493 74.5033 19.0534C74.3697 19.0605 74.2366 19.0743 74.1044 19.0947L74.1023 21.6139Z" fill="#3A3A3A"/>
<path d="M58.8489 27.0676H56.0558V17.4019H50.6025V15.2742H64.2564V17.3812H58.8489V27.0676Z" fill="#3A3A3A"/>
<path d="M101.961 17.4164V19.1196H97.2611V27.0542H94.8627V19.164H90.2041V17.4164H101.961Z" fill="#3A3A3A"/>
<path d="M66.2051 17.3947H68.51V27.0459H66.2051V17.3947Z" fill="#3A3A3A"/>
<path d="M87.5303 27.0573H85.2129V17.4122H87.5303V27.0573Z" fill="#3A3A3A"/>
</svg>

<svg width="133" height="43" fill="none" xmlns="http://www.w3.org/2000/svg"><path d="M6.396 27.518L21.64 12.316c-1.039-.985-1.881-2.222-3.403-2.54l2.028-1.974c.061.057.234.213.398.377 1.804 1.792 3.593 3.598 5.416 5.371.78.76 1.628 1.447 2.46 2.18-.754 1.106-2.38 1.26-3.434.203-.59-.594-1.14-1.227-1.68-1.807L9.8 27.669l11.479 11.415L39.372 21.09l-3.038-2.955 1.658-1.603 4.61 4.617-21.305 21.186L6.396 27.518z" fill="#30CBFF"/><path d="M20.935 29.999c1.08 1.05 1.956 2.258 3.53 2.608l-2.088 1.955c-2.79-2.527-5.273-5.525-8.31-7.943.95-1.162 2.467-1.233 3.557-.09.534.558 1.048 1.138 1.514 1.647l13.644-13.568L21.326 3.213 3.247 21.19l3.039 2.97-1.75 1.549L0 21.202C7.074 14.162 14.221 7.056 21.318 0L36.21 14.81 20.935 30z" fill="#30CBFF"/><path d="M118.283 15.26h2.744v4.877c.24-.167.389-.265.531-.37 1.878-1.404 3.748-2.819 5.643-4.2a1.87 1.87 0 0 1 .983-.318 24.484 24.484 0 0 1 3.342.104l-7.738 5.474 8.843 6.254c-1.215 0-2.277-.047-3.333.015-.826.05-1.47-.19-2.123-.687-1.893-1.446-3.832-2.821-5.754-4.224-.081-.06-.167-.112-.346-.232v5.097h-2.792V15.26zM104.645 27.053V17.42h10.424v1.687h-7.983v2.075h4.618v1.687h-4.616v2.348h8.102v1.832l-10.545.004zM74.084 23.317v3.725h-2.328v-9.635c.148-.007.311-.022.479-.022h8.45a3.44 3.44 0 0 1 .618.048c1.005.185 1.447.66 1.486 1.67.031.826.034 1.653 0 2.474-.045 1.058-.598 1.645-1.707 1.682-1.863.062-3.73.043-5.595.056-.446.004-.89.002-1.403.002zm.018-1.703h1.454c1.35 0 2.701.01 4.044-.005.74-.008.944-.22.952-.911 0-.276-.007-.55 0-.826.012-.457-.208-.71-.66-.764a5.399 5.399 0 0 0-.619-.055 924.8 924.8 0 0 0-4.77 0c-.133.008-.266.021-.399.042l-.002 2.519zM58.849 27.068h-2.793v-9.666h-5.453v-2.128h13.653v2.107H58.85v9.687zM101.961 17.416v1.704h-4.7v7.934h-2.398v-7.89h-4.659v-1.748h11.757zM66.205 17.395h2.305v9.65h-2.305v-9.65zM87.53 27.057h-2.317v-9.645h2.317v9.645z" fill="#3A3A3A"/></svg>
